src/lib/packages/icons/src/assets/filled/chart-bar-square.svg

<svg xmlns="http://www.w3.org/2000/svg" width="24" height="24" fill="none"><path fill="currentColor" d="M17.625 3H6.375C4.125 3 3 4.125 3 6.375v11.25C3 19.875 4.125 21 6.375 21h11.25C19.875 21 21 19.875 21 17.625V6.375C21 4.125 19.875 3 17.625 3ZM10.5 15.5c0 1-.5 1.5-1.5 1.5s-1.5-.5-1.5-1.5v-3c0-1 .5-1.5 1.5-1.5s1.5.5 1.5 1.5v3Zm6 0c0 1-.5 1.5-1.5 1.5s-1.5-.5-1.5-1.5v-7c0-1 .5-1.5 1.5-1.5s1.5.5 1.5 1.5v7Z"/></svg>

<svg width="24" height="24" viewBox="0 0 24 24" fill="none" xmlns="http://www.w3.org/2000/svg">
<path d="M17.625 3H6.375C4.125 3 3 4.125 3 6.375V17.625C3 19.875 4.125 21 6.375 21H17.625C19.875 21 21 19.875 21 17.625V6.375C21 4.125 19.875 3 17.625 3ZM10.5 15.5C10.5 16.5 10 17 9 17C8 17 7.5 16.5 7.5 15.5V12.5C7.5 11.5 8 11 9 11C10 11 10.5 11.5 10.5 12.5V15.5ZM16.5 15.5C16.5 16.5 16 17 15 17C14 17 13.5 16.5 13.5 15.5V8.5C13.5 7.5 14 7 15 7C16 7 16.5 7.5 16.5 8.5V15.5Z" fill="currentColor"/>
</svg>
